src/lib/packages/icons/src/assets/line/presentation-lightbulb.svg

<svg width="24" height="24" viewBox="0 0 24 24" fill="none" xmlns="http://www.w3.org/2000/svg">
<path d="M21 2.25H3C2.586 2.25 2.25 2.586 2.25 3C2.25 3.414 2.586 3.75 3 3.75H3.75V13C3.75 15.418 5.082 16.75 7.5 16.75H11.25V18.599L8.58398 20.376C8.23898 20.606 8.14598 21.071 8.37598 21.416C8.60498 21.761 9.07102 21.854 9.41602 21.624L12 19.901L14.584 21.624C14.712 21.709 14.856 21.75 15 21.75C15.242 21.75 15.48 21.633 15.625 21.416C15.855 21.071 15.762 20.606 15.417 20.376L12.751 18.599V16.75H16.501C18.919 16.75 20.251 15.418 20.251 13V3.75H21C21.414 3.75 21.75 3.414 21.75 3C21.75 2.586 21.414 2.25 21 2.25ZM18.75 13C18.75 14.577 18.077 15.25 16.5 15.25H7.5C5.923 15.25 5.25 14.577 5.25 13V3.75H18.75V13ZM9.961 11.443C10.103 11.918 10.554 12.25 11.057 12.25H12.935C13.445 12.25 13.885 11.926 14.031 11.444C14.123 11.14 14.235 10.956 14.286 10.91C15.134 10.137 15.534 8.98601 15.356 7.83301C15.133 6.39001 13.957 5.23903 12.496 5.03503C11.509 4.89503 10.514 5.18701 9.771 5.83301C9.03 6.47801 8.604 7.41197 8.604 8.39697C8.604 9.35297 9.00599 10.264 9.68799 10.877C9.74399 10.932 9.868 11.134 9.961 11.443ZM10.754 6.96497C11.174 6.59897 11.721 6.44202 12.287 6.52002C13.085 6.63202 13.752 7.28001 13.873 8.06201C13.976 8.72801 13.757 9.36205 13.277 9.80005C12.996 10.055 12.806 10.424 12.683 10.75H11.308C11.194 10.45 11.004 10.065 10.71 9.78101C10.324 9.43301 10.103 8.92897 10.103 8.39697C10.104 7.84697 10.341 7.32397 10.754 6.96497ZM13.75 13.25C13.75 13.664 13.414 14 13 14H11C10.586 14 10.25 13.664 10.25 13.25C10.25 12.836 10.586 12.5 11 12.5H13C13.414 12.5 13.75 12.836 13.75 13.25Z" fill="currentColor"/>
</svg>

<svg xmlns="http://www.w3.org/2000/svg" width="24" height="24" fill="none"><path fill="currentColor" d="M21 2.25H3a.75.75 0 0 0 0 1.5h.75V13c0 2.418 1.332 3.75 3.75 3.75h3.75v1.849l-2.666 1.777a.75.75 0 1 0 .832 1.248L12 19.901l2.584 1.723a.748.748 0 0 0 1.041-.208.75.75 0 0 0-.208-1.04l-2.666-1.777V16.75h3.75c2.418 0 3.75-1.332 3.75-3.75V3.75H21a.75.75 0 0 0 0-1.5ZM18.75 13c0 1.577-.673 2.25-2.25 2.25h-9c-1.577 0-2.25-.673-2.25-2.25V3.75h13.5V13Zm-8.789-1.557c.142.475.593.807 1.096.807h1.878c.51 0 .95-.324 1.096-.806.092-.304.204-.488.255-.534a3.439 3.439 0 0 0 1.07-3.077c-.223-1.443-1.399-2.594-2.86-2.798a3.42 3.42 0 0 0-2.725.798 3.397 3.397 0 0 0-1.167 2.564c0 .956.402 1.867 1.084 2.48.056.055.18.257.273.566Zm.793-4.478c.42-.366.967-.523 1.533-.445.798.112 1.465.76 1.586 1.542.103.666-.116 1.3-.596 1.738-.281.255-.471.624-.594.95h-1.375c-.114-.3-.304-.685-.598-.969a1.861 1.861 0 0 1-.607-1.384c.001-.55.238-1.073.651-1.432Zm2.996 6.285A.75.75 0 0 1 13 14h-2a.75.75 0 0 1 0-1.5h2a.75.75 0 0 1 .75.75Z"/></svg>
